svg/fluentui-system-icons/ic_fluent_cube_12_regular.svg

<svg width="12" height="12" viewBox="0 0 12 12" fill="none" xmlns="http://www.w3.org/2000/svg">
<path d="M4.02566 4.84274C4.11298 4.58077 4.39614 4.43919 4.65811 4.52651L6 4.97381L7.34189 4.52651C7.60386 4.43919 7.88702 4.58077 7.97434 4.84274C8.06167 5.10471 7.92009 5.38787 7.65811 5.4752L6.5 5.86123V7.00073C6.5 7.27687 6.27614 7.50073 6 7.50073C5.72386 7.50073 5.5 7.27687 5.5 7.00073V5.86123L4.34189 5.4752C4.07991 5.38787 3.93833 5.10471 4.02566 4.84274ZM5.57267 2.06607C5.85153 1.98319 6.14847 1.98319 6.42733 2.06606L9.28488 2.91532C9.7091 3.0414 10 3.43133 10 3.87389V8.12782C10 8.57042 9.70906 8.96036 9.28479 9.08641L6.42719 9.9354C6.14842 10.0182 5.85158 10.0182 5.57281 9.9354L2.71521 9.08641C2.29094 8.96036 2 8.57041 2 8.12782V3.86645C2 3.42832 2.28798 3.04229 2.70796 2.91748L5.57267 2.06607ZM6.14245 3.02463C6.04949 2.997 5.95051 2.997 5.85756 3.02463L3 3.87391V8.12782L5.8576 8.97681C5.95053 9.00442 6.04947 9.00442 6.1424 8.97681L9 8.12782V3.87389L6.14245 3.02463Z" fill="#212121"/>
</svg>

<svg xmlns="http://www.w3.org/2000/svg" width="12" height="12"><path d="M4.026 4.843a.5.5 0 0 1 .632-.316L6 4.974l1.342-.447a.5.5 0 0 1 .316.948L6.5 5.861v1.14a.5.5 0 0 1-1 0V5.86l-1.158-.386a.5.5 0 0 1-.316-.632Zm1.547-2.777a1.5 1.5 0 0 1 .854 0l2.858.85a1 1 0 0 1 .715.958v4.254a1 1 0 0 1-.715.958l-2.858.85a1.5 1.5 0 0 1-.854 0l-2.858-.85A1 1 0 0 1 2 8.128V3.866a.99.99 0 0 1 .708-.949l2.865-.85Zm.57.959a.5.5 0 0 0-.285 0L3 3.874v4.254l2.858.849a.5.5 0 0 0 .284 0L9 8.127V3.875l-2.858-.85Z"/></svg>
